!!! OTL: Literature131
!!! Chapter: 5
!!! Section: IV
!!! Page: 375
!!! Mode: 
!!! Encoder: DJB
**kern
*staff1
*I"Piano
=1-
*clefG2
*k[b-]
*d:
*M4/4
4r
4a/
4dd\
4a/
=2
2.g#/
4g#/
=3
4g/
4b-\
4dd\
4g/
=4
2f#/
4f#/
4r
=5
4r
4f/
4g/
4a/
=6
4b-\
4e-/
4f/
4g/
=7
2.a/
4a/
=8
2d/
2r
=9
4r
4a/
4dd\
4a/
=10
2.g#/
4g#/
=11
4g/
4b-\
4dd\
4g/
=12
!!linebreak:original
2f#/
4f#/
4ee-\
=13
4..dd\
16g/
2g/
=14
2r
4r
4g#/
=15
4a/
4bn\
4cc#\
4dd\
=16
2.ff\
4ee\
=17
4dd\
4r
2r
==
*-
